X: 42
T: Barn Dance Schottische
M:4/4
L:1/8
R:Schottische
S: Viola "Mom" Ruth - Pioneer Western Folk Tunes (1948)
Z:AK/Fiddler's Companion
K:C
c>d|e2c2 cGcd|e2d2d2 de|f2B2 BABc|d2c2c2cd|e2c2 cBcd|e2d2d2e2|
f2B2 BdBA|G2c2 c4||{D}E2C2 CCDE|F2D2D2A2|c2 BA GABc|
d2c2c2 BA|{D}E2C2 CCDE|F2 FE D4|{^A}BdBA GABc|d2c2c2||

%%sep 1 1 500
